X: 1
T: Battle of the Braes   #2   [A]
R: march
Z: 2014 John Chambers <jc:trillian.mit.edu>
S: fiddle w/ Ed Pearlman
S: Boston Slow Scottish Jam 2015-5-16
M: C|
L: 1/8
K: A
(AF) |\
EFAB c2(BA) | BcBA F2(AF) | EFAB  vcue2uA | vc2B2 B2(AF) |
EFAB c2(BA) | BcBA FGAF   | EFAB  vcue2uc | vB2A2 A2 :|
|: (eg) |\
a2(fe) c2(BA) | BcBA F4   | ua2vfue vceAB | c2B2 B2(eg) |
a2(fe) c2(BA) | BcBA FGAF | EFAB  vcue2uc | vB2A2 A2 :|

%%sep 1 1 500

